public/img/events/moon-festival.svg

<svg width="200" height="200" viewBox="0 0 200 200" fill="none" xmlns="http://www.w3.org/2000/svg">
<g clip-path="url(#clip0_501_28995)">
<path fill-rule="evenodd" clip-rule="evenodd" d="M92.0477 0.795229C41.6504 0.795229 0.795229 41.6504 0.795229 92.0477C0.795229 142.445 41.6504 183.3 92.0477 183.3C142.445 183.3 183.3 142.445 183.3 92.0477C183.3 41.6504 142.445 0.795229 92.0477 0.795229ZM0 92.0477C0 41.2112 41.2112 0 92.0477 0C142.884 0 184.095 41.2112 184.095 92.0477C184.095 142.884 142.884 184.095 92.0477 184.095C41.2112 184.095 0 142.884 0 92.0477Z" fill="black"/>
<path fill-rule="evenodd" clip-rule="evenodd" d="M145.825 92.4453C116.344 92.4453 92.4454 116.344 92.4454 145.825C92.4454 175.306 116.344 199.205 145.825 199.205C175.306 199.205 199.205 175.306 199.205 145.825C199.205 116.344 175.306 92.4453 145.825 92.4453ZM91.6501 145.825C91.6501 115.905 115.905 91.6501 145.825 91.6501C175.745 91.6501 200 115.905 200 145.825C200 175.745 175.745 200 145.825 200C115.905 200 91.6501 175.745 91.6501 145.825Z" fill="black"/>
</g>
<defs>
<clipPath id="clip0_501_28995">
<rect width="200" height="200" fill="white"/>
</clipPath>
</defs>
</svg>

<svg xmlns="http://www.w3.org/2000/svg" width="200" height="200" fill="none"><g fill="#000" fill-rule="evenodd" clip-path="url(#a)" clip-rule="evenodd"><path d="M92.048.795C41.65.795.795 41.65.795 92.048c0 50.397 40.855 91.252 91.253 91.252 50.397 0 91.252-40.855 91.252-91.252C183.3 41.65 142.445.795 92.048.795M0 92.048C0 41.21 41.211 0 92.048 0c50.836 0 92.047 41.211 92.047 92.048 0 50.836-41.211 92.047-92.047 92.047C41.21 184.095 0 142.884 0 92.048"/><path d="M145.825 92.445c-29.481 0-53.38 23.899-53.38 53.38s23.899 53.38 53.38 53.38 53.38-23.899 53.38-53.38-23.899-53.38-53.38-53.38m-54.175 53.38c0-29.92 24.255-54.175 54.175-54.175S200 115.905 200 145.825 175.745 200 145.825 200 91.65 175.745 91.65 145.825"/></g><defs><clipPath id="a"><path fill="#fff" d="M0 0h200v200H0z"/></clipPath></defs></svg>
